X:1
T:Se de l'eterna vita
T:Giammateo Asola
T:Source : Madrigali a due voci---Venetia---G.Vincenti---1587. Editor : André Vierendeels (19/04/17).
T:Notes : Original clefs : C1 ( "Fuga d'un tempo, una ottava piu bassa") Editorial accidentals above the staff
T:Se de l'eterna vita
T:©
T:©
C:Giammateo Asola
Z:©
%%score [ 1 2 ]
L:1/8
Q:1/4=120
M:2/2
K:F
V:1 treble nm="Soprano" snm="S"
V:2 treble-8 nm="Tenor" snm="T"
V:1
 G4 A2 F2 | G2 B2 ABcA | BA/G/FG A4 | G2 c2 c2 A2 | B2 c2 A4 | G4 z2 c2 | B2 G2 B2 c2 | %7
w: Se de l'e-|ter- na vi- * * *||ta, l'a- mor ce-|le- st'è pe-|gno, co-|me puo chi non|
 d3 c BA G2- | G2 F2 B2 B2 | A4 D4 | z2 A2 F2 D2 | F2 E2 FG A2- | A2 G2 A4 | z2 d2 d2 c2 | %14
w: a- * * * *|* ma ha- ver|ai- ta,|co- me puo|far- si de- * *|* * gno,|d'en- trar nel|
 d2 B2 A3 G | F2 ED E4 | D4 z2 G2 | G2 F2 G2 B2 | A4 D2 d2 | d2 c2 d2 B2 | A2 A2 z2 d2 | %21
w: som- mo Re- *||gno, de|l'o- di- o- se|vo- glie, dun-|que'o- gni cor si|spo- glie, e-|
 c3 B A2 F2 | G4 A4 | z2 G2 G2 F2 | G2 E2 D2 d2 | d2 c2 d2 B2 | A2 A2 F2 D2 | E4 D2 A2- | %28
w: ra l'ar- dor di-|vi- no,|pro- cu- ri|quan- to puo, pro-|cu- ri quann- to|puo far- si vi-|ci- no, far-|
 A2 G2 A3 B | cA B3 A A2- | AG G4 F2 | B4 A4 | GD G4 F2 |"^#" G8 |] %34
w: * si vi- *|* * * * ci-||||no.|
V:2
 z8 | G4 A2 F2 | G2 B2 ABcA | BA/G/FG A4 | G2 c2 c2 A2 | B2 c2 A4 | G4 z2 c2 | B2 G2 B2 c2 | %8
w: |Se de l'e-|ter- na vi- * * *||ta, l'a- mor ce-|le- st'è pe-|gno, co-|me puo chi non|
 d3 c BA G2- | G2 F2 B2 B2 | A4 D4 | z2 A2 F2 D2 | F2 E2 FG A2- | A2 G2 A4 | z2 d2 d2 c2 | %15
w: a- * * * *|* ma ha- ver|ai- ta,|co- me puo|far- si de- * *|* * gno,|d'en- trar nel|
 d2 B2 A3 G | F2 ED E4 | D4 z2 G2 | G2 F2 G2 B2 | A4 D2 d2 | d2 c2 d2 B2 | A2 A2 z2 d2 | %22
w: som- mo Re- *||gno, de|l'o- di- o- so|vo- glie, dun-|que'o- gni cor si|spo- glie, e-|
 c3 B A2 F2 | G4 A4 | z2 G2 G2 F2 | G2 E2 D2 d2 | d2 c2 d2 B2 | A2 A2 F2 D2 | E4 D2 A2- | %29
w: ra l'ar- dor di-|vi- no,|pro- cu- ri|quan- to puo, pro-|cu- ro quan- to|puo far- si vi-|ci- no, far-|
 A2 G2 A3 B | cA B3 A A2- | AG G4 F2 | B4 A4 | G8 |] %34
w: * si vi- *|* * ci- * *|||no.|

